!!!COM1: Joplin, Scott
!!!CDT1: 1868/11/24/-1917/04/01/
!!!COM2: Chauvin, Louis
!!!CDT2: 1881/03/13/-1908/03/26/
!!!OTL: Heliotrope Bouquet
!!!ONB: A Slow Drag Two Step
!!!ODT: 1907///
!!!PPR: John Stark & Son
!!!PPP: New York and St. Louis, Missouri
!!!PDT: 1907///
!!!ENC: Craig Stuart Sapp
!!!END: 2004/06/08/
!!!YEC: Copyright 2004 by Craig Stuart Sapp
!!!YEN: United States of America
**kern	**kern	**dynam
*staff2	*staff1	*staff1
*Ipiano	*Ipiano	*Ipiano
*>[I,A,B,B1,B,B2,C,D,D1,D,D2,E,E1,E,E2]	*>[I,A,B,B1,B,B2,C,D,D1,D,D2,E,E1,E,E2]	*>[I,A,B,B1,B,B2,C,D,D1,D,D2,E,E1,E,E2]
*>norep[I,A,B,B2,C,D,D2,E,E2]	*>norep[I,A,B,B2,C,D,D2,E,E2]	*>norep[I,A,B,B2,C,D,D2,E,E2]
*>I	*>I	*>I
=1-	=1-	=1-
*clefF4	*clefG2	*clefG2
*k[f#]	*k[f#]	*k[f#]
*M2/4	*M2/4	*M2/4
*MM73	*MM73	*MM73
16D\LL	16d/LL	mf
16E\	16e/	.
16F#\	16f#/	.
[16G\JJ	[16g/JJ	.
16G\LL]	16g/LL]	.
16B\	16b/	.
16A\	16a/	.
16G\JJ	16g/JJ	.
=2	=2	=2
16d\LL	16dd/LL	p
16c\	16cc/	.
16B\	16b/	.
[16A\JJ	[16a/JJ	.
16A\LL]	16a/LL]	.
16B\	16b/	.
16c\	16cc/	.
16d\JJ	16dd/JJ	.
=3	=3	=3
16c\LK	16cc/LK	.
8E\	8e/	.
16F#\Jk	16f#/Jk	.
8G\L	8g/L	.
8E\J	8e/J	.
=4	=4	=4
8D\	8d/	.
8r	8r	.
*	*^	*
4BB-^\ 4B-^\	(8ff#^/L	4g\ 4cc#\	.
.	8ee/J)	.	.
*	*v	*v	*
=5	=5	=5
*>A	*>A	*>A
*	*^	*
8.AA/ 8.E/L	16cn/ (16ccn/LL	8.e\L	mf
.	16d/ 16dd/	.	.
.	16e/ 16ee/	.	.
[16D/Jk	[16c/ 16b/JJ)	[16f#\Jk	.
8D/L]	16b/LL	8c\] 8f#\L]	.
.	16f#/J	.	.
8DD/ 8D/J	8a/J	8c\ 8f#\J	.
=6	=6	=6	=6
8GG\ 8D\L	(16g/LL	8.B\L	.
.	16b/	.	.
16BB\ 16B\L	16dd/	.	.
[16BB-\ [16B-\JJ	[16ff#/JJ)	[16g\ [16cc#\Jk	.
4BB-\] 4B-\]	16ff#/LL]	4g\] 4cc#\]	.
.	16cc#/J	.	.
.	8ee/J	.	.
=7	=7	=7	=7
8.AA/ 8.E/L	16cn/ (16ccn/LL	8.e\L	.
.	16d/ 16dd/	.	.
.	16e/ 16ee/	.	.
[16D/Jk	[16c/ [16b/JJ)	[16f#\Jk	.
8D/L]	16b/LL]	8c\] 8f#\L]	.
.	16f#/J	.	.
8DD/ 8D/J	8a/J	8c\ 8f#\J	.
=8	=8	=8	=8
8GG\ 8D\L	(16g/LL	8.B\L	.
.	16b/	.	.
16BB\ 16B\L	16dd/	.	.
[16BB-\ [16B-\JJ	[16ff#/JJ)	[16g\ [16cc#\Jk	.
4BB-\] 4B-\]	16ff#/LL]	4g\] 4cc#\]	.
.	16cc#/J	.	.
.	8ee/J	.	.
=9	=9	=9	=9
8.AA/ 8.E/L	16cn/ (16ccn/LL	8.e\L	.
.	16d/ 16dd/	.	.
.	16e/ 16ee/	.	.
[16DD/ [16D/Jk	16c/ [16b/JJ)	[16f#\Jk	.
8DD/] 8D/L]	16b/LL]	&(8c\&) 8f#\L]	.
.	16f#/J	.	.
8DD/ 8D#/J	8a/J	8c\ 8f#\J	.
=10	=10	=10	=10
8.EE\ 8.E\L	(16g/LL	8.B\ 8.e\L	.
.	16a/	.	.
.	16b/	.	.
[16BB\ [16B\Jk	[16dd/JJ)	16d\ [16f#\ [16b\Jk	.
8BB\] 8B\L]	16dd/LL]	&(8f#\]&) 8b\L]	.
.	16dd/J	.	.
8BB-\ 8B-\J	8ee/J	8g\ 8dd\J	.
=11	=11	=11	=11
8.AA/ 8.A/L	16f#/ (16ff#/LL	8.f#\ 8.dd\L	.
.	16g/ 16gg/	.	.
.	16a/ 16aa/	.	.
[16BBB/ [16BB/Jk	[16ff#/JJ)	[16g#\ [16dd\Jk	.
8BBB/] 8BB/L]	16ff#/LL]	8g#\] 8dd\L]	.
.	16dd/J	.	.
8AAA/ 8AA/J	8ee/J	8gn\ 8cc#\J	.
*	*v	*v	*
=12	=12	=12
!(Dq/	!	!
4DD/)	4f#/ 4a/ 4dd/	f
*	*^	*
4BB-^\ 4B-^\	(8ff#/L	4g\ 4cc#\	.
.	8ee/J)	.	.
=13	=13	=13	=13
8.AA/ 8.E/L	16cn/ (16ccn/LL	8.e\L	mf
.	16d/ 16dd/	.	.
.	16e/ 16ee/	.	.
[16D/Jk	[16c/ [16b/JJ)	[16f#\Jk	.
8D/L]	16b/LL]	8c\] 8f#\L]	.
.	16f#/J	.	.
8DD/ 8D/J	8a/J	8c\ 8f#\J	.
=14	=14	=14	=14
8GG\ 8D\L	(16g/LL	8.B\L	.
.	16b/	.	.
16BB\ 16B\L	16dd/	.	.
[16BB-\ [16B-\JJ	[16ff#/JJ)	[16g\ [16cc#\Jk	.
4BB-\] 4B-\]	16ff#/LL]	4g\] 4cc#\]	.
.	16cc#/J	.	.
.	8ee/J	.	.
=15	=15	=15	=15
8.AA/ 8.E/L	16cn/ (16ccn/LL	8.e\L	.
.	16d/ 16dd/	.	.
.	16e/ 16ee/	.	.
[16D/Jk	[16c/ 16b/JJ)	[16f#\Jk	.
8D/L]	16b/LL	8c\] 8f#\L]	.
.	16f#/J	.	.
8DD/ 8D/J	8a/J	8c\ 8f#\J	.
=16	=16	=16	=16
4GG/ 4D/	8g/L	4B\	.
.	(16dd/L	.	.
.	16b/JJ)	.	.
4GG/ 4G/	(16dd/LL	4g\	.
.	16b/	.	.
.	16dd/	.	.
.	16b/JJ)	.	.
=17	=17	=17	=17
8GG/ 8Fn/L	8dd/L	8g\L	.
8GG/ 8F/J	16dd/L	8g\J	.
.	16b/JJ	.	.
8GG/ 8F/L	16dd/LK	4g\	.
.	8gg/	.	.
8GG/ 8F/J	.	.	.
.	16b/Jk	.	.
=18	=18	=18	=18
8GG/ 8E/L	8cc/L	8g\L	.
8GG/ 8E/J	16cc/L	8g\J	.
.	16b/JJ	.	.
8GG/ 8E-/L	(16cc/LL	4g\	.
.	16g/	.	.
8GG/ 8E-/J	16a/	.	.
.	16a#/JJ)	.	.
=19	=19	=19	=19
8DD/ 8D/L	16b/LK	8.d\ 8.g\L	.
.	8dd/	.	.
16DD/ 16D#/L	.	.	.
[16EE/ [16E/JJ	[16b/Jk	[16c#\ [16g\Jk	.
8EE/] 8E/L]	16b/LL]	8c#\] 8g\L]	.
.	16g/J	.	.
8DD/ 8Dn/J	8a/J	8cn\ 8f#\J	.
*	*v	*v	*
=20	=20	=20
4GG/ 4G/	4B/ 4g/	.
4GG#^/ 4G#^/	4dd^\ 4ee#^\ 4bb^\	.
=21!|:	=21!|:	=21!|:
*>B	*>B	*>B
*	*^	*
8AA\ 8A\L	8bb/L	8cc\ 8ff#\L	f
8D\ 8F#\ 8c\J	16bb/L	[8cc\ [8ff#\J	.
.	16aa/JJ	.	.
8DD\ 8D\L	16bb/LK	16cc\] 16ff#\LK]	.
.	8ddd/	8.dd\ 8.ff#\J	.
8D\ 8F#\ 8c\J	.	.	.
.	16aa/Jk	.	.
=22	=22	=22	=22
*^	*	*	*
8A/L	4AA\ 4A\	16bb/LL	8.cc\ 8.ff#\L	.
.	.	16aa/	.	.
[8F#/ [8c/J	.	16bb/	.	.
.	.	[16ddd/JJ	[16dd\ [16ff#\Jk	.
8F#/_ 8c/L_	[8DD\ [8D\L	8ddd/L_	8dd\_ 8ff#\L_	.
16F#/] 16c/Jk]	16DD\] 16D\k]	16ddd/k]	16dd\] 16ff#\Jk]	.
16r	48D\LL	48dd/LL	16r	.
.	48D\	48dd#/	.	.
.	48E\JJJ	48ee/JJJ	.	.
*v	*v	*	*	*
=23	=23	=23	=23
8GG\ 8G\L	8gg/L	8b\L	.
8D\ 8G\ 8B\J	16ee/L	[8g\ [8b\J	.
.	16dd/JJ	.	.
8DD\ 8D\L	16ee/LK	16g\] 16b\LK]	.
.	8gg/	8.g\ 8.b\J	.
8D\ 8G\ 8B\J	.	.	.
.	16dd/Jk	.	.
*	*v	*v	*
=24	=24	=24
8GG\ 8G\L	16g\ 16b\ 16gg\LL	.
.	16f#\ 16b\ 16ff#\	.
8D\ 8G\ 8B\J	16g\ 16b\ 16gg\	.
.	[16g\ [16b\ [16ee\JJ	.
8DD/ 8D/L	16g/] 16b/] 16ee/LL]	.
.	16d/ 16dd/	.
16GG/ 16G/L	16e/ 16ee/	.
16GG#/ 16G#/JJ	16e#/ 16ee#/JJ	.
=25	=25	=25
8AA\ 8A\L	8f#\ 8cc\ 8ff#\L	.
8D\ 8A\ 8c\J	16f#\ 16cc\ 16ff#\L	.
.	16dd\JJ	.
8DD\ 8D\L	16f#\ 16cc\ 16ff#\LK	.
.	8a\ 8cc\ 8aa\	.
8D\ 8F#\ 8c\J	.	.
.	16ee\Jk	.
=26	=26	=26
8AA\ 8A\L	16f#\ 16cc\ 16ff#\LL	.
.	16ee\	.
8D\ 8A\ 8c\J	16f#\ 16cc\ 16ff#\	.
.	[16f#\ [16cc\ [16ee\JJ	.
[8DD/ [8D/L	8f#\_ 8cc\_ 8ee\L_	.
16DD/] 16D/L]	16f#\] 16cc\] 16ee\k]	.
48D/L	48dd\LL	.
48E/	48ee\	.
48F#/JJJ	48ff#\JJJ	.
=27	=27	=27
8G\	8b/ 8gg/L	.
(8fn\L	8b/ (8dd/	.
8e\	8a#/ 8cc#/	.
8e-\J)	8an/ 8ccn/J)	.
=28	=28	=28
(8d\L	8g/ (8b/L	.
8c#\	8g/ 8b-/	.
8cn\J)	8f#/ 8a/)	.
8GG#/ 8G#/	8d/ 8e/ 8b-/J	.
=29	=29	=29
*	*^	*
8AA\ 8A\L	16r	8r	.
.	16aa/LL	.	f
8D\ 8F#\ 8c\J	16bb/	[8cc\ [8ff#\	.
.	16aa/JJ	.	.
8DD\ 8D\L	16bb/LK	16cc\] 16ff#\LK]	.
.	8ddd/	8.dd\ 8.ff#\J	.
8D\ 8F#\ 8c\J	.	.	.
.	16aa/Jk	.	.
=30	=30	=30	=30
*^	*	*	*
8A/L	4AA\ 4A\	(16bb/LL	8.cc\ 8.ff#\L	.
.	.	16aa/	.	.
[8F#/ [8c/J	.	16bb/	.	.
.	.	[16ddd/JJ)	[16dd\ [16ff#\Jk	.
8F#/_ 8c/L_	[8DD\ [8D\L	8ddd/L_	8dd\_ 8ff#\L_	.
16F#/] 16c/Jk]	16DD\] 16D\k]	16ddd/k]	16dd\] 16ff#\Jk]	.
16r	48D\LL	48dd/LL	16r	.
.	48D#\	48dd#/	.	.
.	48E\JJJ	48ee/JJJ	.	.
*v	*v	*	*	*
=31	=31	=31	=31
8GG\ 8G\L	8gg/L	8b\L	.
8D\ 8G\ 8B\J	16ee/L	[8g\ [8b\J	.
.	16dd/JJ	.	.
8DD\ 8D\L	16ee/LK	16g\] 16b\LK]	.
.	8gg/	8.g\ 8.b\J	.
8D\ 8G\ 8B\J	.	.	.
.	16dd/Jk	.	.
*	*v	*v	*
=32	=32	=32
8GG\ 8G\L	16g\ 16b\ 16gg\LL	.
.	16f#\ 16b\ 16ff#\	.
8D\ 8G\ 8B\J	16g\ 16b\ 16gg\	.
.	[16g\ [16b\ [16ee\JJ	.
8GG/ 8G/L	8g\] 8b\] 8ee\L]	.
8FFn/ 8Fn/J	24dd\L	.
.	24cc#\	.
.	24dd\JJ	.
=33	=33	=33
8EE\ 8E\L	8ee\L	.
8E\ 8G#\ 8d\J	8dd\ 8gg#\ 8bb\J	.
*	*^	*
8AA\ 8A\L	(16aan/LK	4cc#\ 4gg#\	.
.	8.eee/J)	.	.
8E\ 8Gn\ 8A\ 8c#\J	.	.	.
*	*v	*v	*
=34	=34	=34
8D\ 8F#\ 8A\ 8d\L	8ccn\ 8dd\L	.
8Cn\ 8cn\J	8dd\ 8ff#\ 8aa\J	.
*	*^	*
8BB\ 8B\L	16gg/LK	4dd\	.
.	8.ddd/J	.	.
8D\ 8G\ 8B\J	.	.	.
=35	=35	=35	=35
8AA\ 8A\L	(16aa/LK	4cc#\ 4gg\	.
.	8.eee/J)	.	.
8E\ 8G\ 8A\ 8c#\J	.	.	.
8DD\ 8D\L	16aa/LK	4ccn\ 4ff#\	.
.	8.ddd/J	.	.
8D\ 8F#\ 8A\ 8cn\J	.	.	.
*	*v	*v	*
=36	=36	=36
*>B1	*>B1	*>B1
4GG\ 4G\	4b\ 4dd\ 4gg\	.
4GG#^\ 4G#^\	4dd^\ 4ee#^\ 4bb^\	.
=37:|!	=37:|!	=37:|!
*>B2	*>B2	*>B2
4GG\ 4G\	4b\ 4dd\ 4gg\	.
*	*^	*
4BB-^\ 4B-^\	(8ff#/L	4g\ 4cc#\	.
.	8ee/J)	.	.
=38	=38	=38	=38
*	*v	*v	*
*>C	*>C	*>C
*	*^	*
8.AA/ 8.E/L	16cn/ (16ccn/LL	8.e\L	mf
.	16d/ 16dd/	.	.
.	16e/ 16ee/	.	.
[16D/Jk	[16c/ 16b/JJ)	[16f#\Jk	.
8D/L]	16b/LL	8c\] 8f#\L]	.
.	16f#/J	.	.
8DD/ 8D/J	8a/J	8c\ 8f#\J	.
=39	=39	=39	=39
8GG\ 8D\L	(16g/LL	8.B\L	.
.	16b/	.	.
16BB\ 16B\L	16dd/	.	.
[16BB-\ [16B-\JJ	[16ff#/JJ)	[16g\ [16cc#\Jk	.
4BB-\] 4B-\]	16ff#/LL]	4g\] 4cc#\]	.
.	16cc#/J	.	.
.	8ee/J	.	.
=40	=40	=40	=40
8.AA/ 8.E/L	16cn/ (16ccn/LL	8.e\L	.
.	16d/ 16dd/	.	.
.	16e/ 16ee/	.	.
[16D/Jk	[16c/ 16b/JJ)	[16f#\Jk	.
8D/L]	16b/LL	8c\] 8f#\L]	.
.	16f#/J	.	.
8DD/ 8D/J	8a/J	8c\ 8f#\J	.
=41	=41	=41	=41
8GG\ 8D\L	(16g/LL	8.B\L	.
.	16b/	.	.
16BB\ 16B\L	16dd/	.	.
[16BB-\ [16B-\JJ	[16ff#/JJ)	[16g\ [16cc#\Jk	.
4BB-\] 4B-\]	16ff#/LL]	4g\] 4cc#\]	.
.	16cc#/J	.	.
.	8ee/J	.	.
=42	=42	=42	=42
8.AA/ 8.E/L	16cn/ (16ccn/LL	8.e\L	.
.	16d/ 16dd/	.	.
.	16e/ 16ee/	.	.
[16DD/ [16D/Jk	[16c/ 16b/JJ)	[16f#\Jk	.
8DD/] 8D/L]	16b/LL	8c\] 8f#\L]	.
.	16f#/J	.	.
8DD#/ 8D#/J	8a/J	8c\ 8f#\J	.
=43	=43	=43	=43
8.EE\ 8.E\L	(16g/LL	8.B\ 8.e\L	.
.	16a/	.	.
.	16b/	.	.
[16BB\ [16B\Jk	[16dd/JJ)	[16d\ [16f#\ [16b\Jk	.
8BB\] 8B\L]	16dd/LL]	8d\] 8f#\] 8b\L]	.
.	16dd/J	.	.
8BB-\ 8B-\J	8ee/J	8g\ 8dd\J	.
=44	=44	=44	=44
8.AA/ 8.A/L	16f#/ (16ff#/LL	8.f#\ 8.dd\L	.
.	16g/ 16gg/	.	.
.	16a/ 16aa/	.	.
[16BBB/ [16BB/Jk	[16ff#/JJ)	[16g#\ [16dd\Jk	.
8BBB/] 8BB/L]	16ff#/LL]	8g#\] 8dd\L]	.
.	16dd/J	.	.
8AAA/ 8AA/J	8ee/J	8gn\ 8cc#\J	.
*	*v	*v	*
=45	=45	=45
!(Dq/	!	!
4DD/)	4f#/ 4a/ 4dd/	f
*	*^	*
4BB-^\ 4B-^\	(8ff#^/L	4g\ 4cc#\	.
.	8ee/J)	.	.
=46	=46	=46	=46
8.AA/ 8.E/L	16cn/ (16ccn/LL	8.e\L	mf
.	16d/ 16dd/	.	.
.	16e/ 16ee/	.	.
[16D/Jk	[16c/ 16b/JJ	[16f#\Jk	.
8D/L]	16b/LL)	8c\] 8f#\L]	.
.	16f#/J	.	.
8DD/ 8D/J	8a/J	8c\ 8f#\J	.
=47	=47	=47	=47
8GG\ 8D\L	(16g/LL	8.B\L	.
.	16b/	.	.
16BB\ 16B\L	16dd/	.	.
[16BB-\ [16B-\JJ	[16ff#/JJ)	[16g\ [16cc#\Jk	.
4BB-\] 4B-\]	16ff#/LL]	4g\] 4cc#\]	.
.	16cc#/J	.	.
.	8ee/J	.	.
=48	=48	=48	=48
8.AA/ 8.E/L	16cn/ (16ccn/LL	8.e\L	.
.	16d/ 16dd/	.	.
.	16e/ 16ee/	.	.
[16D/Jk	[16c/ 16b/JJ)	[16f#\Jk	.
8D/L]	16b/LL	8c\] 8f#\L]	.
.	16f#/J	.	.
8DD/ 8D/J	8a/J	8c\ 8f#\J	.
=49	=49	=49	=49
4GG/ 4D/	8g/L	4B\	.
.	(16dd/L	.	.
.	16b/JJ	.	.
4GG/ 4G/	(16dd/LL)	4g\	.
.	16b/	.	.
.	16dd/	.	.
.	16b/JJ)	.	.
=50	=50	=50	=50
8GG/ 8Fn/L	8dd/L	8g\L	.
8GG/ 8F/J	16dd/L	8g\J	.
.	16b/JJ	.	.
8GG/ 8F/L	16dd/LK	4g\	.
.	8gg/	.	.
8GG/ 8F/J	.	.	.
.	16b/Jk	.	.
=51	=51	=51	=51
8GG/ 8E/L	8cc/L	8g\L	.
8GG/ 8E/J	16cc/L	8g\J	.
.	16b/JJ	.	.
8GG/ 8E-/L	(16cc/LL	4g\	.
.	16g/	.	.
8GG/ 8E-/J	16a/	.	.
.	16a/JJ)	.	.
=52	=52	=52	=52
8DD/ 8D/L	16b/LK	8.d\ 8.g\L	.
.	8dd/	.	.
16DD#/ 16D#/L	.	.	.
[16EE/ [16E/JJ	[16b/Jk	[16c#\ [16g\Jk	.
8EE/] 8E/L]	16b/LK]	8c#\] 8g\L]	.
.	8g/	.	.
8DDn/ 8Dn/J	.	8cn\ 8f#\J	.
.	16a/Jk	.	.
*	*v	*v	*
=53	=53	=53
8GG/ 8G/	8B/ 8g/L	.
8r	(16g/L	.
.	16a/JJ	.
4G\ 4B\ 4fn\	16b\LL	.
.	16cc\	.
.	16dd\	.
.	16dd#\JJ)	.
=54!|:	=54!|:	=54!|:
*>D	*>D	*>D
*k[]	*k[]	*k[]
*	*^	*
8CC\ 8C\L	(16ee/LL	4g\	.
.	16dd#/	.	.
8G\ 8c\ 8e\J	16ee/	.	.
.	16g/JJ	.	.
8FF\ 8F\L	16a/LK)	8.a\L	.
.	8cc/	.	.
8A-\ 8c\ 8f\J	.	.	.
.	16ddn/Jk	16a-\Jk	.
*	*v	*v	*
=55	=55	=55
8CC\ 8C\L	8g\ 8cc\ 8ee\L	.
8G\ 8c\ 8e\J	16a\ 16cc\ 16ee\ 16aa\L	.
.	[16g\ [16cc\ [16ee\ [16gg\JJ	.
8GGG\ 8GG\L	16g\] 16cc\] 16ee\] (16gg\LL]	.
.	16ee\ 16eee\	.
8G\ 8B\ 8f\J	16dd\ 16ddd\	.
.	16ff\JJ)	.
=56	=56	=56
*	*^	*
8CC\ 8C\L	16ee/LL	4g\	.
.	16dd#/	.	.
8G\ 8c\ 8e\J	16ee/	.	.
.	16g/JJ	.	.
8FF/ 8F/L	16a/LK	8.a\L	.
.	8cc/	.	.
8FF#/ 8F#/J	.	.	.
.	16ddn/Jk	16a-\Jk	.
*	*v	*v	*
=57	=57	=57
8GG\ 8G\L	2g\ 2cc\ 2ee\	.
8C\ 8c\	.	.
8BB^\ 8B^\	.	.
8BB-^\ 8B-^\J	.	.
=58	=58	=58
*^	*	*
8A/L	4AA\ 4A\	(16ff\LL	.
.	.	16ccc\	.
8A/ 8c/ 8f/J	.	16dd\	.
.	.	[16cc\JJ)	.
8A-/L	4AA-\ 4A-\	16cc\LL]	.
.	.	(16dd\	.
8A-/ 8c/J	.	16ff\	.
.	.	16ccc\JJ)	.
*v	*v	*	*
=59	=59	=59
8GG\ 8G\L	(16ee\LL	.
.	16gg\	.
8G\ 8c\ 8e\J	16dd\	.
.	[16cc\JJ)	.
*	*^	*
8EE/ 8E/L	16r	16cc\LL]	.
.	8.cc/	16g\ (16gg\	.
8EE-/ 8E-/J	.	16a\ 16aa\	.
.	.	16a#\ 16aa#\JJ)	.
=60	=60	=60	=60
8.DD/ 8.D/L	8.gg/	16b\ 16bb\LL	.
.	.	16cc\ 16ccc\	.
.	.	16dd\ 16ddd\	.
[16EE/ [16E/Jk	16r	[16cc#\ [16gg\ 16bb\JJ	.
8EE/] 8E/L]	16bb/LL	8cc#\] 8gg\L]	.
.	16gg/J	.	.
8DD/ 8D/J	8aa/J	8ccn\ 8ff#\J	.
*	*v	*v	*
=61	=61	=61
8GG/ 8G/L	8b\ 8dd\ 8gg\L	.
8FF/ 8F/	(16g\L	.
.	16a\JJ	.
8EE/ 8E/	16b\LL	.
.	16cc\	.
8DD/ 8D/J	16dd\	.
.	16dd#\JJ)	.
=62	=62	=62
*	*^	*
8CC\ 8C\L	(16ee/LL	4g\	mp
.	16dd#/	.	.
8G\ 8c\ 8e\J	16ee/	.	.
.	16g/JJ)	.	.
8FF\ 8F\L	16a/LK	8.a\L	.
.	8cc/	.	.
8A-\ 8c\ 8f\J	.	.	.
.	16ddn/Jk	16a-\Jk	.
*	*v	*v	*
=63	=63	=63
8CC\ 8C\L	8g\ 8cc\ 8ee\L	.
8G\ 8c\ 8e\J	16a\ 16cc\ 16ee\ 16aa\L	.
.	[16g\ [16cc\ [16ee\ [16gg\JJ	.
8GGG\ 8GG\L	16g\] 16cc\] 16ee\] 16gg\LL]	.
.	16cc\J	.
8G\ 8c\ 8e\J	8ee\J	.
=64	=64	=64
8EEE\ 8EE\L	16dd#\LL	.
.	16ee\	.
8G#\ 8d\ 8e\J	16gg#\	.
.	[16ddn\ [16gg#\ [16ccc\JJ	.
8EEE\ 8EE\L	16dd\] 16gg#\] 16ccc\LL]	.
.	16ee\J	.
8G#\ 8d\ 8e\J	8dd\ 8gg#\ 8bb\J	.
=65	=65	=65
8AAA\ 8AA\L	8cc\ 8ee\ 8aa\L	.
8A\ 8c\ 8e\J	16b\ 16bb\L	.
.	[16cc\ [16ccc\JJ	.
8EEE\ 8EE\L	16cc\] 16ccc\LL]	.
.	(16aa\	.
8A\ 8c\ 8e\J	16ee\	.
.	16cc\JJ)	.
=66	=66	=66
(16FF#/LL	(16ccc\LL	mf
16AA/	16aa\	.
16C/	16ff#\	.
16D#/JJ	16dd#\JJ	.
16F#\LK	16cc\LK	.
8A\	8a\	.
16A-\Jk)	16a-\Jk)	.
=67	=67	=67
8GG\ 8G\L	8g/L	.
8G\ 8c\ 8e\J	16a/L	.
.	[16cc/JJ	.
8AAA\ 8AA\L	16cc\LL]	.
.	16dd\J	.
8A\ 8c\ 8e\J	8ee\J	.
=68	=68	=68
8DD\ 8D\L	4f#/ 4a/	.
8F#\ 8A\ 8c\J	.	.
8GG\ 8G\L	4fn/ 4g/ 4ee/	.
8Fn\ 8G\ 8B\J	.	.
=69	=69	=69
*>D1	*>D1	*>D1
8C\ 8E\ 8G\ 8c\	8e/ 8g/ 8cc/L	.
8r	(16g/L	.
.	16a/JJ	.
4G\ 4B\ 4f\	16b\LL	.
.	16cc\	.
.	16dd\	.
.	16dd\JJ)	.
=70:|!	=70:|!	=70:|!
*>D2	*>D2	*>D2
8C\ 8E\ 8G\ 8c\L	[4e/ [4g/ [4cc/	.
16DD#\ 16D#\L	.	.
16EE\ 16E\JJ	.	.
16GG\ 16G\LL	8e/] 8g/] 8cc/]	.
16C\ 16c\	.	.
16BB\ 16B\	8r	.
16GG\ 16A\JJ	.	.
=71!|:	=71!|:	=71!|:
*>E	*>E	*>E
*	*^	*
8GG/ 8G/L	(16g/LL	8.g\L	mf
.	16b/	.	.
8FF/ 8F/	16dd/	.	.
.	(16gg/JJ)	16b\Jk	.
8EE/ 8E/	16gg/LL	&(4b\&)	.
.	16aa/)	.	.
8DD/ 8D/J	16gg/	.	.
.	16ff/JJ	.	.
=72	=72	=72	=72
8CC\ 8C\L	8ee/L	8.cc\L	.
8G\ 8c\ 8e\J	16gg/L	.	.
.	[16ccc/JJ	[16cc\ [16ee\Jk	.
8EE\ 8E\L	8.ccc/L]	8cc\] 8ee\]	.
8G\ 8c\ 8e\J	.	8r	.
.	16a#/Jk	.	.
*	*v	*v	*
=73	=73	=73
8GGG\ 8GG\L	16b\LK	mp
.	8gg\	.
8G\ 8B\ 8d\ 8f\J	.	.
.	16a#\Jk	.
8DD/ 8D/L	16b\LK	.
.	8gg\	.
8DD/ 8D#/J	.	.
.	16b\Jk	.
=74	=74	=74
8EE\ 8E\L	(16cc\LL	.
.	16dd\	.
8G\ 8c\ 8e\J	16dd#\	.
.	[16ee\JJ)	.
16GG\ 16G\LL	4ee\]	.
16C\ 16c\	.	.
16BB\ 16B\	.	.
16AA\ 16A\JJ	.	.
=75	=75	=75
*	*^	*
8GG/ 8G/L	(16g/LL	8.g\L	mf
.	16b/	.	.
8FF/ 8F/	16dd/	.	.
.	(16gg/JJ)	[16b\Jk	.
8EE/ 8E/	16gg/LL	4b\]	.
.	(16aa/)	.	.
8DD/ 8D/J	16gg/	.	.
.	16ff/JJ)	.	.
=76	=76	=76	=76
8CC\ 8C\L	8ee/L	8.cc\L	.
8G\ 8c\ 8e\J	16gg/L	.	.
.	[16ccc/JJ	[16cc\ [16ee\Jk	.
8AAA\ 8AA\L	(16ccc/LL]	8cc\] 8ee\]	.
.	16aa/	.	.
8A\ 8c\ 8e\J	16ee/	8r	.
.	16cc/JJ)	.	.
=77	=77	=77	=77
8BBB\ 8BB\L	(16b/LL	8.b\L	.
.	16ee/	.	.
8G\ 8B\ 8e\J	16gg/	.	.
.	[16ff#/JJ)	[16b\ [16dd#\Jk	.
8BB\L	8ff#/L]	8b\] 8dd#\L]	.
8A\ 8B\ 8d#\J	8bb/J	8b\ 8dd#\J	.
*	*v	*v	*
=78	=78	=78
8EE\ 8E\L	8b\ 8ee\ 8bb\L	f
8G\ 8B\ 8e\J	(16gg\L	.
.	16b\JJ	.
8CC#\ 8C#\L	(16ee/LL)	.
.	16cc/	.
8E\ 8G\ 8A#\J	16a#/	.
.	[16g/JJ)	.
=79	=79	=79
*	*^	*
8DD/ 8D/L	16g/LL	(8.g\L]	.
.	16b/	.	.
8FF/ 8F/	16dd/	.	.
.	(16gg/JJ)	16b\Jk	.
8EE/ 8E/	16gg/LL	4b\	.
.	16aa/)	.	.
8DD/ 8D/J	16gg/	.	.
.	&(16ff/JJ&)	.	.
=80	=80	=80	=80
8CC\ 8C\L	8ee/L	8.cc\L	.
8G\ 8c\ 8e\J	16gg/L	.	.
.	[16ccc/JJ	[16cc\ [16ee\Jk	.
8EE\ 8E\L	8.ccc/L]	8cc\] 8ee\]	.
8G\ 8c\ 8e\J	.	8r	.
.	16a#/Jk	.	.
*	*v	*v	*
=81	=81	=81
8GGG\ 8GG\L	16b\LK	.
.	8gg\	.
8G\ 8B\ 8d\ 8f\J	.	.
.	16a#\Jk	.
8DD/ 8D/L	16b\LK	.
.	8gg\	.
8DD#/ 8D#/J	.	.
.	16b\Jk	.
=82	=82	=82
8EE\ 8E\L	(16cc/LL	.
.	16b/)	.
8G\ 8c\ 8e\J	16a/	.
.	&([16g/JJ&)	.
8C\L	8.g/L]	.
8G\ 8c\ 8e\J	.	.
.	16g#/Jk	.
=83	=83	=83
*^	*	*
2c/	(8F\L	(16a\LL	.
.	.	16aa\	.
.	8D#\	16ff\	.
.	.	16cc\JJ)	.
.	8E\	(16g\LK	.
.	.	8cc\ 8ee\ 8gg\)	.
.	8C\J)	.	.
.	.	16g#\Jk	.
=84	=84	=84	=84
2c/	(8F\L	(16a\LL	.
.	.	16aa\	.
.	8D#\	16ff\	.
.	.	16cc\JJ)	.
.	8E\)	16g\LK	.
.	.	8cc\ 8ee\ 8gg\	.
.	8EE\ 8E\J	.	.
.	.	16g\Jk	.
*v	*v	*	*
=85	=85	=85
8DD\ 8D\L	4f#/ 4a/	mf
8F#\ 8A\ 8c\J	.	.
8GG\ 8G\L	4fn/ 4g/ 4ee/	.
8Fn\ 8G\ 8B\J	.	.
=86	=86	=86
*>E1	*>E1	*>E1
8C\ 8E\ 8G\ 8c\L	[4e/ [4g/ [4cc/	.
16DD#\ 16D#\L	.	.
16EE\ 16E\JJ	.	.
16GG\ 16G\LL	8e/] 8g/] 8cc/]	.
16C\ 16c\	.	.
16BB\ 16B\	8r	.
16AA\ 16A\JJ	.	.
=87:|!	=87:|!	=87:|!
*>E2	*>E2	*>E2
8C\ 8E\ 8G\ 8c\L	4e/ 4g/ 4cc/	.
!FF#q/	!	!
8GG\J	.	.
8CC/ 8C/	8cc\ 8ee\ 8gg\ 8ccc\	.
8r	8r	.
==	==	==
*-	*-	*-
!!!ONB: Ties need to be added where the ties cross voices.
